X:1
T: Deodar
N:
C:
S:
A:
O:
R:
M:4/4
K:D
I:speed 232
%W: A1
% voice 1 (1 lines, 29 notes)
K:D
M:4/4
L:1/16
A4 |A4 d4 c4 d4 |^d4 e4 e8 |A4 e4 ^d4 e4 |^e4 f4 f8 |d4 d4 e4 f4 |g4 a4 b8 |a4 A4 B4 c4 |d8 z4 A4 |
%W: A2
% voice 1 (1 lines, 28 notes)
A4 d4 c4 d4 |^d4 e4 e8 |A4 e4 ^d4 e4 |^e4 f4 f8 |d4 d4 e4 f4 |g4 a4 b8 |a4 A4 B4 c4 |d8 z4 A4 |
%W: B1
% voice 1 (1 lines, 28 notes)
A4 e4 ^d4 e4 |^e4 f4 f8 |A4 e4 ^d4 e4 |^e4 f4 f8 |d4 d4 e4 f4 |g4 a4 b8 |a4 A4 B4 c4 |d8 z4 A4 |
%W: B2
% voice 1 (1 lines, 27 notes)
A4 e4 ^d4 e4 |^e4 f4 f8 |A4 e4 ^d4 e4 |^e4 f4 f8 |d4 d4 e4 f4 |g4 a4 b8 |a4 A4 B4 c4 |d8 z4 ||
